www/assets/icons/terminal.svg

<svg width="24" height="24" viewBox="0 0 24 24" xmlns="http://www.w3.org/2000/svg" fill='currentColor'><path d="M20 4H4C2.89 4 2 4.9 2 6V18C2 19.1 2.89 20 4 20H20C21.1 20 22 19.1 22 18V6C22 4.9 21.11 4 20 4ZM20 18H4V8H20V18ZM18 17H12V15H18V17ZM7.5 17L6.09 15.59L8.67 13L6.08 10.41L7.5 9L11.5 13L7.5 17Z"/></svg>

<svg xmlns="http://www.w3.org/2000/svg" width="24" height="24" viewBox="0 0 24 24" fill='currentColor'><path d="M20 4H4a2 2 0 0 0-2 2v12a2 2 0 0 0 2 2h16c1.1 0 2-.9 2-2V6a2 2 0 0 0-2-2m0 14H4V8h16zm-2-1h-6v-2h6zM7.5 17l-1.41-1.41L8.67 13l-2.59-2.59L7.5 9l4 4z"/></svg>
